Server.default = ~server = s = Dan.serverboot(\local, \builtin);
Server.default = ~server = s = Dan.serverboot(\local, \rme);
Server.default = ~server = s = Dan.serverboot(\local, \motu);
Server.default = ~server = s = Dan.serverboot(\internal, \builtin);
Quarks.gui;
s.dumpOSC(1);
OSCdef.trace(true);
s.dumpOSC(0);
OSCdef.trace(false);
ServerTreeGui.makeWindow(s);
StartUp.run;
PS.go.();
PS.kill.();
