Server.default = Dan.serverboot(\local, \builtin);
Server.default = Dan.serverboot(\local, \rme);
Server.default = Dan.serverboot(\local, \motu);
Server.default = Dan.serverboot(\local, \jack);
Server.default = Dan.serverboot(\internal, \builtin);
Quarks.gui;
s.dumpOSC(1);
OSCdef.trace(true);
s.dumpOSC(0);
OSCdef.trace(false);
ServerTreeGui.makeWindow(s);
StartUp.run;
PS.go.();
PS.kill.();
MIDIClient.init;
MIDIFunc.trace(false);
MIDIClient.sources;
MIDIClient.init;
MIDIIn.connectAll;
